Numix-Light/16/status/indicator-keyboard-Ko-2.svg

<?xml version="1.0" encoding="UTF-8" standalone="no"?>
<svg
   xmlns:dc="http://purl.org/dc/elements/1.1/"
   xmlns:cc="http://creativecommons.org/ns#"
   xmlns:rdf="http://www.w3.org/1999/02/22-rdf-syntax-ns#"
   xmlns:svg="http://www.w3.org/2000/svg"
   xmlns="http://www.w3.org/2000/svg"
   xmlns:sodipodi="http://sodipodi.sourceforge.net/DTD/sodipodi-0.dtd"
   xmlns:inkscape="http://www.inkscape.org/namespaces/inkscape"
   viewBox="0 0 16 16"
   id="svg2"
   version="1.1"
   inkscape:version="0.91 r13725"
   sodipodi:docname="indicator-keyboard-Ko-2.svg">
  <metadata
     id="metadata14">
    <rdf:RDF>
      <cc:Work
         rdf:about="">
        <dc:format>image/svg+xml</dc:format>
        <dc:type
           rdf:resource="http://purl.org/dc/dcmitype/StillImage" />
      </cc:Work>
    </rdf:RDF>
  </metadata>
  <defs
     id="defs12" />
  <sodipodi:namedview
     pagecolor="#ffffff"
     bordercolor="#666666"
     borderopacity="1"
     objecttolerance="10"
     gridtolerance="10"
     guidetolerance="10"
     inkscape:pageopacity="0"
     inkscape:pageshadow="2"
     inkscape:window-width="640"
     inkscape:window-height="480"
     id="namedview10"
     showgrid="false"
     inkscape:zoom="14.75"
     inkscape:cx="8"
     inkscape:cy="8"
     inkscape:window-x="65"
     inkscape:window-y="24"
     inkscape:window-maximized="0"
     inkscape:current-layer="svg2" />
  <path
     style="fill:#353535;fill-opacity:1"
     d="M 1.5996094 0 C 0.71320937 2.9605947e-16 0 0.71320937 0 1.5996094 L 0 14.400391 C 2.9605947e-16 15.286791 0.71320937 16 1.5996094 16 L 14.400391 16 C 15.286791 16 16 15.286791 16 14.400391 L 16 1.5996094 C 16 0.71320937 15.286791 0 14.400391 0 L 1.5996094 0 z M 1.7285156 4.859375 L 2.3398438 4.859375 L 2.3398438 7.765625 C 2.5678438 7.561625 2.8197031 7.3284531 3.0957031 7.0644531 C 3.3777031 6.7944531 3.6538281 6.5239062 3.9238281 6.2539062 C 4.1998281 5.9839063 4.4572656 5.7264687 4.6972656 5.4804688 C 4.9372656 5.2344688 5.1294375 5.027375 5.2734375 4.859375 L 6.0117188 4.859375 C 5.8377187 5.045375 5.6268594 5.2673906 5.3808594 5.5253906 C 5.1348594 5.7773906 4.8736563 6.0385937 4.5976562 6.3085938 C 4.3216562 6.5785938 4.0474844 6.845375 3.7714844 7.109375 C 3.5014844 7.367375 3.2570156 7.5949688 3.0410156 7.7929688 C 3.2150156 7.9009687 3.4016094 8.0352656 3.5996094 8.1972656 C 3.8036094 8.3532656 4.0069375 8.5287031 4.2109375 8.7207031 C 4.4209375 8.9067031 4.6262188 9.1044531 4.8242188 9.3144531 C 5.0282188 9.5184531 5.216625 9.7255469 5.390625 9.9355469 C 5.570625 10.145547 5.7291875 10.348875 5.8671875 10.546875 C 6.0111875 10.744875 6.12875 10.927703 6.21875 11.095703 L 5.5351562 11.095703 C 5.3311563 10.783703 5.0997969 10.475922 4.8417969 10.169922 C 4.5897969 9.8639217 4.3230156 9.5746875 4.0410156 9.3046875 C 3.7590156 9.0346875 3.4697812 8.7884062 3.1757812 8.5664062 C 2.8877813 8.3444063 2.6098437 8.1597656 2.3398438 8.0097656 L 2.3398438 11.095703 L 1.7285156 11.095703 L 1.7285156 4.859375 z M 8.8457031 6.3359375 C 9.1577031 6.3359375 9.4412187 6.395625 9.6992188 6.515625 C 9.9572186 6.629625 10.179234 6.7937656 10.365234 7.0097656 C 10.557234 7.2197656 10.704641 7.4753906 10.806641 7.7753906 C 10.914641 8.0753906 10.96875 8.4074375 10.96875 8.7734375 C 10.96875 9.1394375 10.914641 9.4734375 10.806641 9.7734375 C 10.704641 10.073438 10.557234 10.327109 10.365234 10.537109 C 10.179234 10.747109 9.9572186 10.913203 9.6992188 11.033203 C 9.4412187 11.147203 9.1577031 11.203125 8.8457031 11.203125 C 8.5337031 11.203125 8.2482344 11.147203 7.9902344 11.033203 C 7.7322344 10.913203 7.5064531 10.747109 7.3144531 10.537109 C 7.1284531 10.327109 6.983 10.073438 6.875 9.7734375 C 6.773 9.4734375 6.7207031 9.1394375 6.7207031 8.7734375 C 6.7207031 8.4074375 6.773 8.0753906 6.875 7.7753906 C 6.983 7.4753906 7.1284531 7.2197656 7.3144531 7.0097656 C 7.5064531 6.7937656 7.7322344 6.629625 7.9902344 6.515625 C 8.2482344 6.395625 8.5337031 6.3359375 8.8457031 6.3359375 z M 8.8457031 6.8652344 C 8.3837031 6.8652344 8.0180469 7.0406719 7.7480469 7.3886719 C 7.4780469 7.7306719 7.3417969 8.1914375 7.3417969 8.7734375 C 7.3417969 9.3554375 7.4780469 9.818156 7.7480469 10.160156 C 8.0180469 10.502156 8.3837031 10.673828 8.8457031 10.673828 C 9.3077031 10.673828 9.6733594 10.502156 9.9433594 10.160156 C 10.213359 9.818156 10.347656 9.3554375 10.347656 8.7734375 C 10.347656 8.1914375 10.213359 7.7306719 9.9433594 7.3886719 C 9.6733594 7.0406719 9.3077031 6.8652344 8.8457031 6.8652344 z M 12.945312 8.7539062 C 13.339212 8.7539062 13.635084 8.851875 13.833984 9.046875 C 14.032884 9.237975 14.132813 9.5044563 14.132812 9.8476562 C 14.132812 9.9997563 14.105381 10.14475 14.050781 10.28125 C 13.996181 10.41385 13.921725 10.543169 13.828125 10.667969 C 13.738425 10.792769 13.634578 10.912297 13.517578 11.029297 C 13.400578 11.146297 13.281056 11.263859 13.160156 11.380859 C 13.058756 11.478359 12.960781 11.578288 12.863281 11.679688 C 12.769681 11.777188 12.683469 11.877116 12.605469 11.978516 C 12.531369 12.076016 12.470628 12.172031 12.423828 12.269531 C 12.380928 12.363131 12.359375 12.457181 12.359375 12.550781 L 12.359375 12.5625 L 14.271484 12.5625 L 14.271484 12.896484 L 11.9375 12.896484 C 11.9375 12.888684 11.935574 12.874969 11.931641 12.855469 L 11.931641 12.755859 C 11.931641 12.572559 11.96495 12.402094 12.03125 12.246094 C 12.09755 12.086194 12.181803 11.937275 12.283203 11.796875 C 12.388503 11.656475 12.504106 11.525197 12.628906 11.404297 C 12.757606 11.283397 12.881047 11.165834 12.998047 11.052734 C 13.095547 10.959134 13.185684 10.869003 13.271484 10.783203 C 13.361184 10.693503 13.439559 10.603366 13.505859 10.509766 C 13.572159 10.416166 13.625062 10.316238 13.664062 10.210938 C 13.703062 10.105638 13.722656 9.9900344 13.722656 9.8652344 C 13.722656 9.5922344 13.6482 9.39825 13.5 9.28125 C 13.3557 9.16035 13.173472 9.0996094 12.951172 9.0996094 C 12.826372 9.0996094 12.714687 9.1152844 12.617188 9.1464844 C 12.519688 9.1776844 12.433475 9.2149125 12.359375 9.2578125 C 12.289175 9.2968125 12.228434 9.3379594 12.177734 9.3808594 C 12.127034 9.4237594 12.089806 9.4570688 12.066406 9.4804688 L 11.867188 9.2167969 C 11.890587 9.1894969 11.931735 9.1503094 11.990234 9.0996094 C 12.052634 9.0450094 12.12905 8.9921062 12.21875 8.9414062 C 12.31235 8.8907063 12.420116 8.8476 12.541016 8.8125 C 12.661916 8.7735 12.797113 8.7539063 12.945312 8.7539062 z "
     id="path4" />
</svg>

<svg xmlns="http://www.w3.org/2000/svg" viewBox="0 0 16 16">
 <path d="m 1.6 0 c -0.886 0 -1.6 0.713 -1.6 1.6 l 0 12.801 c 0 0.886 0.713 1.6 1.6 1.6 l 12.801 0 c 0.886 0 1.6 -0.713 1.6 -1.6 l 0 -12.801 c 0 -0.886 -0.713 -1.6 -1.6 -1.6 l -12.801 0 z m 0.129 4.859 l 0.611 0 l 0 2.906 c 0.228 -0.204 0.48 -0.437 0.756 -0.701 c 0.282 -0.27 0.558 -0.541 0.828 -0.811 c 0.276 -0.27 0.533 -0.527 0.773 -0.773 c 0.24 -0.246 0.432 -0.453 0.576 -0.621 l 0.738 0 c -0.174 0.186 -0.385 0.408 -0.631 0.666 c -0.246 0.252 -0.507 0.513 -0.783 0.783 c -0.276 0.27 -0.55 0.537 -0.826 0.801 c -0.27 0.258 -0.514 0.486 -0.73 0.684 c 0.174 0.108 0.361 0.242 0.559 0.404 c 0.204 0.156 0.407 0.331 0.611 0.523 c 0.21 0.186 0.415 0.384 0.613 0.594 c 0.204 0.204 0.392 0.411 0.566 0.621 c 0.18 0.21 0.339 0.413 0.477 0.611 c 0.144 0.198 0.262 0.381 0.352 0.549 l -0.684 0 c -0.204 -0.312 -0.435 -0.62 -0.693 -0.926 c -0.252 -0.306 -0.519 -0.595 -0.801 -0.865 c -0.282 -0.27 -0.571 -0.516 -0.865 -0.738 c -0.288 -0.222 -0.566 -0.407 -0.836 -0.557 l 0 3.086 l -0.611 0 l 0 -6.236 z m 7.117 1.477 c 0.312 0 0.596 0.06 0.854 0.18 c 0.258 0.114 0.48 0.278 0.666 0.494 c 0.192 0.21 0.339 0.466 0.441 0.766 c 0.108 0.3 0.162 0.632 0.162 0.998 c 0 0.366 -0.054 0.7 -0.162 1 c -0.102 0.3 -0.249 0.554 -0.441 0.764 c -0.186 0.21 -0.408 0.376 -0.666 0.496 c -0.258 0.114 -0.542 0.17 -0.854 0.17 c -0.312 0 -0.597 -0.056 -0.855 -0.17 c -0.258 -0.12 -0.484 -0.286 -0.676 -0.496 c -0.186 -0.21 -0.331 -0.464 -0.439 -0.764 c -0.102 -0.3 -0.154 -0.634 -0.154 -1 c 0 -0.366 0.052 -0.698 0.154 -0.998 c 0.108 -0.3 0.253 -0.556 0.439 -0.766 c 0.192 -0.216 0.418 -0.38 0.676 -0.494 c 0.258 -0.12 0.543 -0.18 0.855 -0.18 z m 0 0.529 c -0.462 0 -0.828 0.175 -1.098 0.523 c -0.27 0.342 -0.406 0.803 -0.406 1.385 c 0 0.582 0.136 1.045 0.406 1.387 c 0.27 0.342 0.636 0.514 1.098 0.514 c 0.462 0 0.828 -0.172 1.098 -0.514 c 0.27 -0.342 0.404 -0.805 0.404 -1.387 c 0 -0.582 -0.134 -1.043 -0.404 -1.385 c -0.27 -0.348 -0.636 -0.523 -1.098 -0.523 z m 4.1 1.889 c 0.394 0 0.69 0.098 0.889 0.293 c 0.199 0.191 0.299 0.458 0.299 0.801 c 0 0.152 -0.027 0.297 -0.082 0.434 c -0.055 0.133 -0.129 0.262 -0.223 0.387 c -0.09 0.125 -0.194 0.244 -0.311 0.361 c -0.117 0.117 -0.237 0.235 -0.357 0.352 c -0.101 0.098 -0.199 0.197 -0.297 0.299 c -0.094 0.098 -0.18 0.197 -0.258 0.299 c -0.074 0.097 -0.135 0.194 -0.182 0.291 c -0.043 0.094 -0.064 0.188 -0.064 0.281 l 0 0.012 l 1.912 0 l 0 0.334 l -2.334 0 c 0 -0.008 -0.002 -0.022 -0.006 -0.041 l 0 -0.1 c 0 -0.183 0.033 -0.354 0.1 -0.51 c 0.066 -0.16 0.151 -0.309 0.252 -0.449 c 0.105 -0.14 0.221 -0.272 0.346 -0.393 c 0.129 -0.121 0.252 -0.238 0.369 -0.352 c 0.098 -0.094 0.188 -0.184 0.273 -0.27 c 0.09 -0.09 0.168 -0.18 0.234 -0.273 c 0.066 -0.094 0.119 -0.194 0.158 -0.299 c 0.039 -0.105 0.059 -0.221 0.059 -0.346 c 0 -0.273 -0.074 -0.467 -0.223 -0.584 c -0.144 -0.121 -0.327 -0.182 -0.549 -0.182 c -0.125 0 -0.236 0.016 -0.334 0.047 c -0.098 0.031 -0.184 0.068 -0.258 0.111 c -0.07 0.039 -0.131 0.08 -0.182 0.123 c -0.051 0.043 -0.088 0.076 -0.111 0.1 l -0.199 -0.264 c 0.023 -0.027 0.065 -0.066 0.123 -0.117 c 0.062 -0.055 0.139 -0.108 0.229 -0.158 c 0.094 -0.051 0.201 -0.094 0.322 -0.129 c 0.121 -0.039 0.256 -0.059 0.404 -0.059 z" style="fill:#353535;fill-opacity:1"/>
</svg>
